!!!SOCIAL_FUNCTION:	lightning songs
!!!PDT:	1932
!!!OTL: No_49_White_Cloud_Declares_His_Power.krn
!!!REG: Southwest
!!!LANG: Non-Tone
!!!LING_GROUP: Yuman-Cochimi
**kern	**kern
*staff2	*staff1
=1-	=1-
*clefF4	*clefF4
*k[b-e-a-]	*k[b-e-a-]
*M5/8	*M5/8
3...r	4r
.	4r
.	8E-\
=2	=2
4GG/	4.G\
4GG/	.
.	8F\L
[8GG/	8E-\J
=3||	=3||
*M3/8	*M3/8
8GG/]	4F\
4GG/	.
.	8G\
=4||	=4||
*M2/4	*M2/4
4GG/	4G\
4GG/	4G\
=5||	=5||
*M5/8	*M5/8
4GG/	4.F\
4GG/	.
.	8E-\L
[8GG/	8D\J
=6||	=6||
*M3/8	*M3/8
8GG/]	4E-\
4GG/	.
.	8E-\
=7||	=7||
*M2/4	*M2/4
4GG/	4E-\
4GG/	8C/
.	16r
.	16C/
=8||	=8||
*M5/8	*M5/8
4GG/	4.G\
4GG/	.
.	8F\L
8r	8E-\J
=9||	=9||
*M3/8	*M3/8
8r	4F\
4GG/	.
.	8G\
=10||	=10||
*M2/4	*M2/4
4GG/	4G\
4GG/	4G\
=11||	=11||
*M5/8	*M5/8
4GG/	4.G\
4GG/	.
.	8F\L
[8GG/	8E-\J
=12||	=12||
*M3/8	*M3/8
8GG/]	4E-\
4GG/	.
.	8E-\
=13||	=13||
*M2/4	*M2/4
4GG/	4E-\
4GG/	8C/
.	16r
.	16C/
=14||	=14||
*M5/8	*M5/8
4GG/	4.B-\
4GG/	.
.	8F\L
[8GG/	8F\J
=15||	=15||
*M3/8	*M3/8
8GG/]	4G\
4GG/	.
.	8B-\
=16||	=16||
*M2/4	*M2/4
4GG/	4G\
4GG/	4G\
=17||	=17||
*M5/8	*M5/8
4GG/	4.G\
4GG/	.
.	8F\L
[8GG/	8E-\J
=18||	=18||
*M3/8	*M3/8
8GG/]	4F\
4GG/	.
.	8G\
=19||	=19||
*M2/4	*M2/4
4GG/	4E-\
4GG/	8C/
.	16r
.	16C/
=20||	=20||
*M5/8	*M5/8
4GG/	4.G\
4GG/	.
.	8F\L
[8GG/	8E-\J
=21||	=21||
*M3/8	*M3/8
8GG/]	4F\
4GG/	.
.	8G\
=22||	=22||
*M2/4	*M2/4
4GG/	4G\
4GG/	4G\
=23||	=23||
*M5/8	*M5/8
4GG/	4.G\
4GG/	.
.	8F\L
[8GG/	8E-\J
=24||	=24||
*M3/8	*M3/8
8GG/]	4E-\
4GG/	.
.	8E-\
=25||	=25||
*M2/4	*M2/4
4GG/	4E-\
4GG/	8C/
.	16r
.	16C/
=26||	=26||
*M5/8	*M5/8
4GG/	4.G\
4GG/	.
.	8F\L
[8GG/	8E-\J
=27||	=27||
*M3/8	*M3/8
8GG/]	4F\
4GG/	.
.	8G\
=28	=28
4GG/	4G\
8GG/	8G\
=29	=29
*M5/8	*M5/8
4GG/	4.G\
4GG/	.
.	8F\L
[8GG/	8E-\J
=30||	=30||
*M3/8	*M3/8
8GG/]	4E-\
4GG/	.
.	8E-\
=31||	=31||
*M2/4	*M2/4
4GG/	4E-\
4GG/	8C/
.	8r
=32	=32
4GG/	2G\
4GG/	.
=33	=33
4GG/	4E-\
4GG/	8.F\L
.	16G\Jk
=34	=34
4GG/	4G\
4GG/	8r
.	16r
.	16G\
=35	=35
4GG/	8G\L
.	[8G\J
4GG/	8G\L]
.	8F\J
=36	=36
4GG/	4.E-\
4GG/	.
.	8E-\
=37	=37
4GG/	4E-\
4GG/	8C/
.	8r
=38	=38
4GG/	2G\
4GG/	.
=39	=39
4GG/	4E-\
4GG/	8.F\L
.	16G\Jk
=40	=40
4GG/	4..G\
4GG/	.
.	16G\
=41	=41
4GG/	8G\L
.	[8G\J
4GG/	8G\L]
.	8F\J
=42	=42
4GG/	4.E-\
4GG/	.
.	8E-\
=43	=43
4GG/	4E-\
4GG/	8C/
.	8r
==	==
*-	*-
